X: 35045
T: Rolling Hills Of Brosna, The
R: reel
M: 4/4
K: Cmajor
CEDC A,CG,A,|C2CD EGGG|cGAc G2EC|DGEC DCA,G,|
C3C A,CG,A,|C2CD EGGG|cGAc G2EC|1 DGED C2G,A,:|2 DGED C3d||
|:cded c3G|AcGc Accd|cded cdec|d2ce d2ed|
cded c3G|AcGc Accd|cGAc GECE|1 DCED C3d:|2 DCED C2G,A,||

